X:1
T:Title
%%score [ 1 2 3 4 ]
L:1/8
Q:1/4=120
M:2/2
K:F
V:1 alto1 nm="Soprano"
V:2 alto2 nm="Alto"
V:3 tenor nm="Tenor"
V:4 bass nm="Bass"
V:1
 A4 |[M:2/2][K:treble] B2 BB A2 B2 | c3 B A2 G2 | F4 A2 AG | F2 D2 F2 G2 | E4 D2 F2 | FG A4 G2 | %7
w: |Mon pè- re my veult|ma- * * ri-|er, A ung hom-|me qui por- te|bar- be, A|ung hom- me qui|
w: |Et ma mè- re luy|va _ _ di-|sant, Que ne suys|pas en- core en|a- ge, Que|ne suys pas en-|
 ^F2 G4 F2 | G4 :| F3 G | A2 A2 A2 A2 | B2 A2 A3 B | c2 d2 ed d2- | d2 ^c2 d2 d2 | c2 d2 A4 | %15
w: por- te bar-|be,|C'est ce-|la de quoy j'en-|ra- ge Qu'on ne|my veult ma- * *|* ri- er, Et|gay, gay, gay,|
w: core en a-|ge,|||||||
 A4 A2 A2 | A4 z2 A2- | A2 A2 F4 | F4 F3 D | E2 E2 D4 | D4 F2 FF | E2 D2 E2 E2 | D2 F2 FG A2- | %23
w: et gay, gay,|gay, A-|* ge, a-|ge, a- ge,|vrai dieu, a-|ge Las, que fe-|ray je, je ne|scay, Las que fe- ray|
w: ||||||||
 A2 G2 G2 ^F2 |: G2 D2 D_E F2 | F2 A4 G2 | ^F2 G4 F2 :| G4 |] %28
w: _ je, je ne|scay Son ne my ma-|ri- e, je|mour- * *|ray.|
w: |||||
V:2
 C4 |[M:2/2][K:treble] D2 DD F2 F2 | E2 F4 D2 | D4 F2 FE | D2 D2 C2 D2- | D2 ^C2 D4 | D2 DD D2 D2 | %7
w: |Mon pè- re my veult|ma- * ri-|er, A ung hom-|me qui por- te|_ bar- be,|A ung hom- me qui|
w: |Et ma mè- re luy|va _ di-|sant, Que ne suys|pas en- core en|_ a- ge,|Que ne suys pas en-|
 D2 C2 D4 | B,4 :| D3 D | E2 E2 E2 E2 | G2 D2 F2 A2 | G2 F2 GFED | E2 E2 D4 | z4 z2 D2 | C2 D2 E4 | %16
w: por- te bar-|be,|C'est ce-|la de quoy j'en-|ra- ge Qu'on ne|my veult ma- * * *|* ri- er,|Et|gay, gay, gay,|
w: core en a-|ge,||||||||
 F4 z2 D2- | D2 A,2 B,4 | C4 A,3 A, | C2 C2 A,4 | B,4 B,2 B,B, | C2 D2 D2 ^C2 | D4 D2 DD | %23
w: gay, A-|* ge, a-|ge, a- ge,|vrai dieu, a-|ge Las, que fe-|ray je, je ne|scay, Las que fe-|
w: |||||||
 D2 D2 D2 D2 |: B,2 B,2 B,C D2 | D2 F4 E2 | D2 C2 D4 :| B,4 |] %28
w: ray je, je ne|scay Son ne my ma-|ri- e, je|mour- * *|ray.|
w: |||||
V:3
 C4 |[M:2/2][K:treble-8] z4 d2 dd | c2 c2 d2 B2 | A4 F2 FG | A2 B2 A2 G2 | A4 D4 | F2 FG A2 B2 | %7
w: |Mon pè- re|my veult ma- ri-|er, A ung hom-|me qui por- te|bar- be,|A ung hom- me qui|
w: |Et ma mè-|re luy va di-|sant, Que ne suys|pas en- core en|a- ge,|Que ne suys pas en-|
 A2 G2 A4 | G4 :| A3 B | c2 c2 c2 c2 | d2 A2 d2 f2 | e2 d2 c2 B2 | A8 | z2 d2 c2 d2 | %15
w: por- te bar-|be,|C'est ce-|la de quoy j'en-|ra- ge Qu'on ne|my veult ma- ri-|er,|Et gay, gay,|
w: core en a-|ge,|||||||
 A2 d2 d2 ^c2 | d4 z2 f2- | f2 c2 d4 | A4 c3 B | A2 G2 F4 | F4 F2 FG | A2 B2 A2 A2 | D4 F2 FG | %23
w: gay, et gay, gay,|gay, A-|* ge, a-|ge, a- ge,|vrai dieu, a-|ge Las, que fe-|ray je, je ne|scay, Las que fe-|
w: ||||||||
 A2 B2 A2 A2 |: G4 z4 | F2 FG A2 B2 | A2 G2 A4 :| G4 |] %28
w: ray je, je ne|scay|Son ne my ma- ri-|e, je mour-|ray.|
w: |||||
V:4
 F,4 |[M:2/2] G,2 G,G, F,2 G,2 | A,2 F,4 G,2 | D,8- | D,4 z4 | z4 B,,2 B,,C, | D,3 _E, F,2 G,2 | %7
w: |Mon pè- re my veult|ma- * ri-|er,|_|A ung hom-|me qui por- te|
w: |Et ma mè- re luy|va _ di-|sant,|_|Que ne suys|pas en- core en|
 D,2 _E,2 D,4 | G,,4 :| D,3 D, | A,,2 A,,2 A,,2 A,,2 | G,,2 D,2 z4 | z8 | z4 D,4 | %14
w: bar- * *|be,|C'est ce-|la de quoy j'en-|ra- ge||Et|
w: a- * *|ge,||||||
 F,2 D,2 A,2 D,2 | F,2 D,2 A,4 | D,4 z2 D,2- | D,2 F,2 B,,4 | F,4 F,3 F, | C,2 C,2 D,4 | B,,8 | %21
w: gay, gay, gay, et|gay, gay, gay,|gay, A-|* ge, a-|ge, a- ge,|vrai dieu, a-|ge|
w: |||||||
 z8 | B,,2 B,,C, D,3 _E, | F,2 G,2 D,4 |: G,,4 B,,2 B,,C, | D,3 _E, F,2 G,2 | D,2 _E,2 D,4 :| %27
w: |Las, que fe- ray je,|je _ ne|scay, Son ne my|ma- ri- e, je|mour- * *|
w: ||||||
 G,,4 |] %28
w: ray.|
w: |

